X:1
T:Doulce memoire
T:Doulce memoire 3v
T:Tielman Susato
T:Source : Le premier Livre des Chansons à 3 parties---Anvers---T.Susato---1544. Editor : André Vierendeels (31/01/15).
C:Tielman Susato
%%score [ 1 2 3 ]
L:1/8
Q:1/4=80
M:2/2
K:C
V:1 treble nm="Superius" snm="S"
V:2 treble-8 nm="Tenor" snm="T"
V:3 bass nm="Bassus" snm="B"
V:1
 z8 | F8 | F2 E2 D4 | C4 z2 D2 | F3 G A2 F2 | E2 A4 G2 | A4 F4 | F2 F2 G2 E2 | F2 E4 D2 | E4 z4 | %10
w: |Doul-|ce me- moi-|re en|plai- sir con- som-|mé- * *|e, en|plai- sir con som-|mé- * *|e,|
w: |La|fer- * me-|té de|noz _ deux tant|ay- mé- *|e, de|noz deux tant ay-|mé- * *|e,|
 A4 A2 A2 | A6 G2 | A2 c2 B2 A2- |"^#" A2 G2 A4- |[M:2/4] A4 :|[M:2/2] F4 G2 G2 | F6 F2 | %17
w: O sie- cle'heu-|reulx qui|cau- se tel sca-|* * voir,|_|Or main- te-|nant as|
w: qui à noz|maulx a|sceu si bien pour-|* * veoir,|_|||
 E2 C2 D2 D2 | C8 | E4 E2 F2 | G2 G2 G2 B2- | BA A4 G2 | A8 | z2 A2 A2 A2 | A4 E2 A2 | %25
w: per- du ton pou-|voir,|rom- pant le|bout de ma seul-|* l'es- pe- ran-|ce,|ser- vant dex-|em- ple'à tous|
w: ||||||||
 G2 E2 F2 E2- | E2 D2 E4 | z2 E2 FGAB | c2 d4 c2 | d4 z2 D2 | E3 F G2 G2 | FE A4 G2 | A2 c3 B AG | %33
w: pi- teulx a- *|* * voir,|fi- ny _ _ _|_ _ le|bien, le|mal- soub- dain com-|men- * * *|ce, soub- * * *|
w: ||||||||
 FEDC B,A, D2- | D2 C2 D4- | D4 z2 E2 | FGAB c2 d2- | d2 c2 d4 | z2 D2 E3 F | G2 G2 FE A2- | %40
w: dain _ _ _ com- * men-|* * ce,|_ fi|ny _ _ _ _ _|_ le bien,|le mal soub-|dain com- men- * *|
w: |||||||
 A2 G2 A2 c2- | cBAG FEDC | B,A, D4 C2 | D8 |] %44
w: |||ce.|
w: ||||
V:2
 F4 F2 E2 | D3 C DEFG | A4 z2 D2 |"^b" F3 G A2 B2- | B2 AG FGAB | c2 A2 B4 | z2 A2 A2 A2 | %7
w: Doul- ce me-|moi- * * * * *|re en|plai- sir con- som-||* mé- e,|en plai- sir|
w: La fer- *|me- * * * * *|té de|noz _ _ deux|_ _ _ tant _ _ _|ay- mé- e,|de noz deux|
"^b" B2 A2 G2 A2- | A2 G2 F4 | E4 A3 B | c2 d4 c2 | d2 f4 e2 | d2 c2 dccB/A/ | B4 A4- | %14
w: con som- mé- *||e, O _|_ sie- cle'heu|reulx qui cau-|se tel sca- * * * *|* voir,|
w: tant ay- mé- *||e, _ _|_ qui à|noz maulx a|sceu si bien _ _ _ _|pour- veoir,|
[M:2/4] A4 :|[M:2/2] d4 e2 c2 | d2 D2 DEFG | AB c4 B2 | c4 z2 A2 | A3 B c2 d2 | e3 d Bc d2- | %21
w: _|Or main- te-|nant as per- * * *|di _ ton pou-|voir, rom-|pant le bout de|ma _ _ _ seul-|
w: _|||||||
 dc A2 B4 | A4 z2 d2 | d2 c2 d4 | A2 d2 c2 A2 |"^b" c3 B AGFE | F4 E2 A2- | AB c2 d2 f2- | %28
w: * l'es- pe- ran-|ce, ser-|vant dex- em-|ple'à tous pi- teulx|a- * * * * *|* voir, fi-|* * * * ny|
w: |||||||
 f2 ed e4 | d2 d2 f2 f2 | g3 f ed e2 | dcBA B4 | A2 A2 c2 c2 | dcBA GFED | E4 D4- | z2 d4 c2 | %36
w: _ _ _ le|bien, le mal soub-|dain com- men- * *||ce, le mal soub-|dain _ _ _ com- * * *|men- ce,|Fi- ny|
w: ||||||||
 d2 f4 ed | e4 d2 d2 | f2 f2 g3 f | e2 e2 dc cB/A/ | B4 A2 A2 | c2 c2 dcBA | GFED E4 | D8 |] %44
w: _ _ _ _|le bien, le|mal sou- dain _|_ com- men- * * * *|* ce, le|mal soub- dain _ _ _|com _ _ _ men-|ce.|
w: ||||||||
V:3
 D,4 D,2 C,2 | F,3 E, D,C, _B,,2 | A,,2 C,2 D,E,F,G, | A,2 A,2 D,4 | z2 D,2 F,3 G, | A,2 F,2 E,4 | %6
w: Doul- ce me-|moi- * * * *|re, doul- ce _ _ _|_ me- moir',|en plai- *|* sir con|
w: La fer- *|||* me- te,|de nous deux|tant ay- me-|
 A,,4 D,4 | D,2 D,2 E,2 A,,2- | A,,B,, C,2 D,4 | C,4 F,4 | F,2 D,2 A,4 | D,4 D,2 E,2 | %12
w: som- me-|e, en plai- sir|_ con- som- me-|e, O|sie- cl'heu- reulx,|O sie- cl'heu-|
w: e, de|nous deux tant ay-|* * * me-|e, Qui|à nos maulx,|qui à nos|
 F,2 C,2 G,2 A,2 | E,2 E,2 A,,4 |[M:2/4] z4 :|[M:2/2] D,4 C,2 C,2 |"^b" B,,6 D,2 | C,2 C,2 G,3 F, | %18
w: reulx qui cau- se|tel sca- voir,||Or main- te-|nant as|per- du ton _|
w: maulx a sceu si|bien pour- veoir,|||||
"^#" E,2 A,2 A,2 A,2 | C3 B, A,2 G,F, | E,2 E,2 E,2 D,2 | D,2 F,2 E,4 | A,,2 D,2 F,2 D,2 | %23
w: _ pou- voir, rom-|pant le bout de _|ma seul- l'es- pe-|ran- * *|ce, ser- * *|
w: |||||
 A,4 D,2 D,2 | D,E,F,G, A,2 E,2 |"^#" C,D,E,F, D,2 A,,2 | D,2 D,2 C,2 A,,2 | A,3 G, F,2 D,2 | %28
w: vant dex- em-|ple'à- * * * tous pi-|teulx _ _ _ a- voir,|à tous pi- teulx|a- * * voir,|
w: |||||
"^b" A,2 B,2 A,4 | D,8 | z2 C,2 C,2 C,2 | D,2 F,2 E,4 | A,,2 A,3 G, F,E, | D,C,B,,A,, G,,A,, B,,2 | %34
w: fi- ny le|bien,|le mal soub-|dain com- men-|ce, soub- * * *|dain _ _ _ com- * men-|
w: ||||||
 A,,4 z2 D,2 |"^b" A,2 B,2 A,4 | D,8 | A,4 D,4 |"^#" D,4 C,4 | C,2 C,2 D,2 F,2 | E,4 A,,2 A,2- | %41
w: ce, fi-|ny _ le|bien,|le mal|sou- dain|le mal com- men-|ce, le mal|
w: |||||||
 A,G,F,E, D,C,B,,A,, | G,,A,, B,,2 A,,4 | D,8 |] %44
w: _ _ _ _ soub- * * *|dai _ com- men-|ce.|
w: |||

